logo/SourceSpec_logo_simple.svg

<?xml version="1.0" encoding="UTF-8"?>
<svg xmlns="http://www.w3.org/2000/svg" xmlns:xlink="http://www.w3.org/1999/xlink" width="145.257pt" height="29.6257pt" viewBox="0 0 145.257 29.6257" version="1.1">
<defs>
<g>
<symbol overflow="visible" id="glyph0-0">
<path style="stroke:none;" d="M 3.703125 0 L 3.703125 -18.4375 L 10.34375 -18.4375 L 10.34375 0 Z M 4.53125 -0.828125 L 9.515625 -0.828125 L 9.515625 -17.609375 L 4.53125 -17.609375 Z M 4.53125 -0.828125 "/>
</symbol>
<symbol overflow="visible" id="glyph0-1">
<path style="stroke:none;" d="M 7 -11.078125 C 8.59375 -10.898438 9.894531 -10.320312 10.90625 -9.34375 C 11.976562 -8.300781 12.515625 -7.023438 12.515625 -5.515625 L 12.515625 -5.484375 C 12.515625 -3.929688 11.984375 -2.632812 10.921875 -1.59375 C 9.859375 -0.53125 8.5625 0 7.03125 0 C 5.488281 0 4.191406 -0.53125 3.140625 -1.59375 C 2.066406 -2.675781 1.53125 -3.957031 1.53125 -5.4375 L 1.53125 -5.59375 L 3.484375 -6.453125 L 3.484375 -5.390625 C 3.484375 -4.421875 3.832031 -3.59375 4.53125 -2.90625 C 5.226562 -2.21875 6.0625 -1.875 7.03125 -1.875 C 8.019531 -1.875 8.859375 -2.21875 9.546875 -2.90625 C 10.234375 -3.601562 10.578125 -4.4375 10.578125 -5.40625 C 10.578125 -6.425781 10.242188 -7.253906 9.578125 -7.890625 C 8.816406 -8.609375 7.984375 -9 7.078125 -9.0625 C 5.535156 -9.1875 4.320312 -9.691406 3.4375 -10.578125 C 2.53125 -11.472656 2.078125 -12.5625 2.078125 -13.84375 C 2.078125 -15.125 2.523438 -16.210938 3.421875 -17.109375 C 4.316406 -17.992188 5.398438 -18.4375 6.671875 -18.4375 C 7.953125 -18.4375 9.035156 -17.992188 9.921875 -17.109375 C 10.828125 -16.191406 11.28125 -15.109375 11.28125 -13.859375 L 11.28125 -13.734375 L 9.328125 -12.859375 L 9.328125 -13.8125 C 9.304688 -14.570312 9.046875 -15.203125 8.546875 -15.703125 C 8.015625 -16.222656 7.390625 -16.484375 6.671875 -16.484375 C 5.941406 -16.484375 5.328125 -16.226562 4.828125 -15.71875 C 4.304688 -15.1875 4.046875 -14.5625 4.046875 -13.84375 C 4.046875 -13.113281 4.304688 -12.488281 4.828125 -11.96875 C 5.304688 -11.488281 6.03125 -11.191406 7 -11.078125 Z M 7 -11.078125 "/>
</symbol>
<symbol overflow="visible" id="glyph0-2">
<path style="stroke:none;" d="M 4.375 -4.625 C 4.375 -3.875 4.644531 -3.25 5.1875 -2.75 C 5.738281 -2.238281 6.367188 -1.984375 7.078125 -1.984375 C 7.765625 -1.984375 8.367188 -2.238281 8.890625 -2.75 C 9.390625 -3.238281 9.648438 -3.863281 9.671875 -4.625 L 9.671875 -9.046875 C 9.648438 -9.804688 9.390625 -10.429688 8.890625 -10.921875 C 8.367188 -11.429688 7.71875 -11.6875 6.9375 -11.6875 C 6.25 -11.6875 5.648438 -11.429688 5.140625 -10.921875 C 4.628906 -10.421875 4.375 -9.820312 4.375 -9.125 Z M 2.421875 -9.078125 C 2.421875 -10.347656 2.867188 -11.429688 3.765625 -12.328125 C 4.660156 -13.222656 5.738281 -13.671875 7 -13.671875 C 8.269531 -13.671875 9.359375 -13.222656 10.265625 -12.328125 C 11.171875 -11.429688 11.625 -10.347656 11.625 -9.078125 L 11.625 -4.59375 C 11.625 -3.320312 11.171875 -2.238281 10.265625 -1.34375 C 9.359375 -0.445312 8.269531 0 7 0 C 5.738281 0 4.660156 -0.445312 3.765625 -1.34375 C 2.867188 -2.238281 2.421875 -3.320312 2.421875 -4.59375 Z M 2.421875 -9.078125 "/>
</symbol>
<symbol overflow="visible" id="glyph0-3">
<path style="stroke:none;" d="M 7.109375 -1.984375 C 7.785156 -1.984375 8.378906 -2.238281 8.890625 -2.75 C 9.410156 -3.257812 9.671875 -3.875 9.671875 -4.59375 C 9.671875 -4.601562 9.671875 -4.613281 9.671875 -4.625 L 9.671875 -12.8125 C 9.671875 -12.8125 10.320312 -13.097656 11.625 -13.671875 L 11.625 -4.59375 C 11.625 -3.320312 11.175781 -2.238281 10.28125 -1.34375 C 9.382812 -0.445312 8.300781 0 7.03125 0 C 5.757812 0 4.671875 -0.445312 3.765625 -1.34375 C 2.867188 -2.238281 2.421875 -3.320312 2.421875 -4.59375 L 2.421875 -12.8125 L 4.375 -13.671875 L 4.375 -4.625 C 4.382812 -3.863281 4.644531 -3.238281 5.15625 -2.75 C 5.675781 -2.238281 6.328125 -1.984375 7.109375 -1.984375 Z M 7.109375 -1.984375 "/>
</symbol>
<symbol overflow="visible" id="glyph0-4">
<path style="stroke:none;" d="M 2.421875 0 L 2.421875 -9.078125 C 2.421875 -10.347656 2.867188 -11.429688 3.765625 -12.328125 C 4.660156 -13.222656 5.738281 -13.671875 7 -13.671875 C 8.300781 -13.671875 9.390625 -13.222656 10.265625 -12.328125 C 11.171875 -11.398438 11.625 -10.316406 11.625 -9.078125 L 11.625 -9.03125 L 9.671875 -8.171875 L 9.671875 -9.046875 C 9.648438 -9.804688 9.390625 -10.429688 8.890625 -10.921875 C 8.367188 -11.429688 7.753906 -11.6875 7.046875 -11.6875 C 6.304688 -11.6875 5.675781 -11.429688 5.15625 -10.921875 C 4.632812 -10.410156 4.375 -9.796875 4.375 -9.078125 C 4.375 -9.066406 4.375 -9.054688 4.375 -9.046875 L 4.375 -0.859375 Z M 2.421875 0 "/>
</symbol>
<symbol overflow="visible" id="glyph0-5">
<path style="stroke:none;" d="M 4.375 -4.625 C 4.375 -3.875 4.644531 -3.25 5.1875 -2.75 C 5.738281 -2.238281 6.367188 -1.984375 7.078125 -1.984375 C 7.765625 -1.984375 8.367188 -2.238281 8.890625 -2.75 C 9.390625 -3.238281 9.648438 -3.863281 9.671875 -4.625 L 9.671875 -4.796875 L 11.625 -5.671875 L 11.625 -4.59375 C 11.625 -3.445312 11.132812 -2.351562 10.15625 -1.3125 C 9.320312 -0.4375 8.269531 0 7 0 C 5.738281 0 4.660156 -0.445312 3.765625 -1.34375 C 2.867188 -2.238281 2.421875 -3.320312 2.421875 -4.59375 L 2.421875 -9.078125 C 2.421875 -10.347656 2.867188 -11.429688 3.765625 -12.328125 C 4.660156 -13.222656 5.738281 -13.671875 7 -13.671875 C 8.289062 -13.671875 9.378906 -13.222656 10.265625 -12.328125 C 11.171875 -11.429688 11.625 -10.347656 11.625 -9.078125 L 11.625 -8.953125 L 9.671875 -8.078125 L 9.671875 -9.046875 C 9.648438 -9.804688 9.390625 -10.429688 8.890625 -10.921875 C 8.367188 -11.429688 7.753906 -11.6875 7.046875 -11.6875 C 6.304688 -11.6875 5.675781 -11.429688 5.15625 -10.921875 C 4.632812 -10.410156 4.375 -9.796875 4.375 -9.078125 C 4.375 -9.066406 4.375 -9.054688 4.375 -9.046875 Z M 4.375 -4.625 "/>
</symbol>
<symbol overflow="visible" id="glyph0-6">
<path style="stroke:none;" d="M 7.078125 -1.984375 C 7.765625 -1.984375 8.367188 -2.238281 8.890625 -2.75 C 9.390625 -3.238281 9.648438 -3.863281 9.671875 -4.625 L 9.671875 -4.796875 L 11.625 -5.671875 L 11.625 -4.59375 C 11.625 -3.445312 11.132812 -2.351562 10.15625 -1.3125 C 9.320312 -0.4375 8.269531 0 7 0 C 5.738281 0 4.660156 -0.445312 3.765625 -1.34375 C 2.867188 -2.238281 2.421875 -3.320312 2.421875 -4.59375 L 2.421875 -9.078125 C 2.421875 -10.347656 2.867188 -11.429688 3.765625 -12.328125 C 4.660156 -13.222656 5.738281 -13.671875 7 -13.671875 C 8.226562 -13.671875 9.316406 -13.222656 10.265625 -12.328125 C 11.171875 -11.484375 11.625 -10.398438 11.625 -9.078125 L 11.625 -7.9375 L 4.375 -4.71875 C 4.375 -3.9375 4.628906 -3.285156 5.140625 -2.765625 C 5.648438 -2.242188 6.296875 -1.984375 7.078125 -1.984375 Z M 6.9375 -11.6875 C 6.25 -11.6875 5.648438 -11.429688 5.140625 -10.921875 C 4.628906 -10.410156 4.375 -9.796875 4.375 -9.078125 C 4.375 -9.066406 4.375 -9.054688 4.375 -9.046875 L 4.375 -6.84375 L 9.65625 -9.203125 C 9.613281 -9.890625 9.359375 -10.460938 8.890625 -10.921875 C 8.367188 -11.429688 7.71875 -11.6875 6.9375 -11.6875 Z M 6.9375 -11.6875 "/>
</symbol>
<symbol overflow="visible" id="glyph0-7">
<path style="stroke:none;" d="M 4.375 -4.625 C 4.375 -3.875 4.644531 -3.25 5.1875 -2.75 C 5.738281 -2.238281 6.367188 -1.984375 7.078125 -1.984375 C 7.765625 -1.984375 8.367188 -2.238281 8.890625 -2.75 C 9.390625 -3.238281 9.648438 -3.863281 9.671875 -4.625 L 9.671875 -9.046875 C 9.648438 -9.804688 9.390625 -10.429688 8.890625 -10.921875 C 8.367188 -11.429688 7.71875 -11.6875 6.9375 -11.6875 C 6.25 -11.6875 5.648438 -11.429688 5.140625 -10.921875 C 4.628906 -10.421875 4.375 -9.820312 4.375 -9.125 Z M 2.421875 4.765625 L 2.421875 -9.078125 C 2.421875 -10.347656 2.867188 -11.429688 3.765625 -12.328125 C 4.671875 -13.222656 5.757812 -13.671875 7.03125 -13.671875 C 8.300781 -13.671875 9.382812 -13.222656 10.28125 -12.328125 C 11.175781 -11.429688 11.625 -10.347656 11.625 -9.078125 L 11.625 -4.59375 C 11.625 -3.320312 11.175781 -2.238281 10.28125 -1.34375 C 9.382812 -0.445312 8.300781 0 7.03125 0 C 6.03125 0 5.144531 -0.273438 4.375 -0.828125 L 4.375 3.921875 Z M 2.421875 4.765625 "/>
</symbol>
</g>
</defs>
<g id="surface1">
<g style="fill:rgb(89.587402%,23.18573%,35.935974%);fill-opacity:1;">
  <use xlink:href="#glyph0-1" x="2.438" y="22.2072"/>
  <use xlink:href="#glyph0-2" x="16.488" y="22.2072"/>
  <use xlink:href="#glyph0-3" x="30.538" y="22.2072"/>
  <use xlink:href="#glyph0-4" x="44.588" y="22.2072"/>
  <use xlink:href="#glyph0-5" x="58.638" y="22.2072"/>
  <use xlink:href="#glyph0-6" x="72.688" y="22.2072"/>
  <use xlink:href="#glyph0-1" x="86.738" y="22.2072"/>
  <use xlink:href="#glyph0-7" x="100.788" y="22.2072"/>
  <use xlink:href="#glyph0-6" x="114.838" y="22.2072"/>
  <use xlink:href="#glyph0-5" x="128.888" y="22.2072"/>
</g>
</g>
</svg>

<?xml version="1.0" encoding="UTF-8"?>
<svg xmlns="http://www.w3.org/2000/svg" xmlns:xlink="http://www.w3.org/1999/xlink" width="145.257pt" height="29.6257pt" viewBox="0 0 145.257 29.6257" version="1.1">
<defs>
<symbol id="c" overflow="visible">
<path d="m7-11.078c1.5938 0.17969 2.8945 0.75781 3.9062 1.7344 1.0703 1.043 1.6094 2.3203 1.6094 3.8281v0.03125c0 1.5547-0.53125 2.8516-1.5938 3.8906-1.0625 1.0625-2.3594 1.5938-3.8906 1.5938-1.543 0-2.8398-0.53125-3.8906-1.5938-1.0742-1.082-1.6094-2.3633-1.6094-3.8438v-0.15625l1.9531-0.85938v1.0625c0 0.96875 0.34766 1.7969 1.0469 2.4844 0.69531 0.6875 1.5312 1.0312 2.5 1.0312 0.98828 0 1.8281-0.34375 2.5156-1.0312 0.6875-0.69531 1.0312-1.5312 1.0312-2.5 0-1.0195-0.33594-1.8477-1-2.4844-0.76172-0.71875-1.5938-1.1094-2.5-1.1719-1.543-0.125-2.7578-0.62891-3.6406-1.5156-0.90625-0.89453-1.3594-1.9844-1.3594-3.2656s0.44531-2.3672 1.3438-3.2656c0.89453-0.88281 1.9766-1.3281 3.25-1.3281 1.2812 0 2.3633 0.44531 3.25 1.3281 0.90625 0.91797 1.3594 2 1.3594 3.25v0.125l-1.9531 0.875v-0.95312c-0.023437-0.75781-0.28125-1.3906-0.78125-1.8906-0.53125-0.51953-1.1562-0.78125-1.875-0.78125-0.73047 0-1.3438 0.25781-1.8438 0.76562-0.52344 0.53125-0.78125 1.1562-0.78125 1.875 0 0.73047 0.25781 1.3555 0.78125 1.875 0.47656 0.48047 1.2031 0.77734 2.1719 0.89062z"/>
</symbol>
<symbol id="g" overflow="visible">
<path d="m4.375-4.625c0 0.75 0.26953 1.375 0.8125 1.875 0.55078 0.51172 1.1797 0.76562 1.8906 0.76562 0.6875 0 1.2891-0.25391 1.8125-0.76562 0.5-0.48828 0.75781-1.1133 0.78125-1.875v-4.4219c-0.023437-0.75781-0.28125-1.3828-0.78125-1.875-0.52344-0.50781-1.1719-0.76562-1.9531-0.76562-0.6875 0-1.2891 0.25781-1.7969 0.76562-0.51172 0.5-0.76562 1.1016-0.76562 1.7969zm-1.9531-4.4531c0-1.2695 0.44531-2.3516 1.3438-3.25 0.89453-0.89453 1.9727-1.3438 3.2344-1.3438 1.2695 0 2.3594 0.44922 3.2656 1.3438 0.90625 0.89844 1.3594 1.9805 1.3594 3.25v4.4844c0 1.2734-0.45312 2.3555-1.3594 3.25-0.90625 0.89844-1.9961 1.3438-3.2656 1.3438-1.2617 0-2.3398-0.44531-3.2344-1.3438-0.89844-0.89453-1.3438-1.9766-1.3438-3.25z"/>
</symbol>
<symbol id="f" overflow="visible">
<path d="m7.1094-1.9844c0.67578 0 1.2695-0.25391 1.7812-0.76562 0.51953-0.50781 0.78125-1.125 0.78125-1.8438v-0.03125-8.1875s0.64844-0.28516 1.9531-0.85938v9.0781c0 1.2734-0.44922 2.3555-1.3438 3.25-0.89844 0.89844-1.9805 1.3438-3.25 1.3438-1.2734 0-2.3594-0.44531-3.2656-1.3438-0.89844-0.89453-1.3438-1.9766-1.3438-3.25v-8.2188l1.9531-0.85938v9.0469c0.007812 0.76172 0.26953 1.3867 0.78125 1.875 0.51953 0.51172 1.1719 0.76562 1.9531 0.76562z"/>
</symbol>
<symbol id="e" overflow="visible">
<path d="m2.4219 0v-9.0781c0-1.2695 0.44531-2.3516 1.3438-3.25 0.89453-0.89453 1.9727-1.3438 3.2344-1.3438 1.3008 0 2.3906 0.44922 3.2656 1.3438 0.90625 0.92969 1.3594 2.0117 1.3594 3.25v0.046875l-1.9531 0.85938v-0.875c-0.023437-0.75781-0.28125-1.3828-0.78125-1.875-0.52344-0.50781-1.1367-0.76562-1.8438-0.76562-0.74219 0-1.3711 0.25781-1.8906 0.76562-0.52344 0.51172-0.78125 1.125-0.78125 1.8438v0.03125 8.1875z"/>
</symbol>
<symbol id="b" overflow="visible">
<path d="m4.375-4.625c0 0.75 0.26953 1.375 0.8125 1.875 0.55078 0.51172 1.1797 0.76562 1.8906 0.76562 0.6875 0 1.2891-0.25391 1.8125-0.76562 0.5-0.48828 0.75781-1.1133 0.78125-1.875v-0.17188l1.9531-0.875v1.0781c0 1.1484-0.49219 2.2422-1.4688 3.2812-0.83594 0.875-1.8867 1.3125-3.1562 1.3125-1.2617 0-2.3398-0.44531-3.2344-1.3438-0.89844-0.89453-1.3438-1.9766-1.3438-3.25v-4.4844c0-1.2695 0.44531-2.3516 1.3438-3.25 0.89453-0.89453 1.9727-1.3438 3.2344-1.3438 1.2891 0 2.3789 0.44922 3.2656 1.3438 0.90625 0.89844 1.3594 1.9805 1.3594 3.25v0.125l-1.9531 0.875v-0.96875c-0.023437-0.75781-0.28125-1.3828-0.78125-1.875-0.52344-0.50781-1.1367-0.76562-1.8438-0.76562-0.74219 0-1.3711 0.25781-1.8906 0.76562-0.52344 0.51172-0.78125 1.125-0.78125 1.8438v0.03125z"/>
</symbol>
<symbol id="a" overflow="visible">
<path d="m7.0781-1.9844c0.6875 0 1.2891-0.25391 1.8125-0.76562 0.5-0.48828 0.75781-1.1133 0.78125-1.875v-0.17188l1.9531-0.875v1.0781c0 1.1484-0.49219 2.2422-1.4688 3.2812-0.83594 0.875-1.8867 1.3125-3.1562 1.3125-1.2617 0-2.3398-0.44531-3.2344-1.3438-0.89844-0.89453-1.3438-1.9766-1.3438-3.25v-4.4844c0-1.2695 0.44531-2.3516 1.3438-3.25 0.89453-0.89453 1.9727-1.3438 3.2344-1.3438 1.2266 0 2.3164 0.44922 3.2656 1.3438 0.90625 0.84375 1.3594 1.9297 1.3594 3.25v1.1406l-7.25 3.2188c0 0.78125 0.25391 1.4336 0.76562 1.9531 0.50781 0.52344 1.1562 0.78125 1.9375 0.78125zm-0.14062-9.7031c-0.6875 0-1.2891 0.25781-1.7969 0.76562-0.51172 0.51172-0.76562 1.125-0.76562 1.8438v0.03125 2.2031l5.2812-2.3594c-0.042969-0.6875-0.29688-1.2578-0.76562-1.7188-0.52344-0.50781-1.1719-0.76562-1.9531-0.76562z"/>
</symbol>
<symbol id="d" overflow="visible">
<path d="m4.375-4.625c0 0.75 0.26953 1.375 0.8125 1.875 0.55078 0.51172 1.1797 0.76562 1.8906 0.76562 0.6875 0 1.2891-0.25391 1.8125-0.76562 0.5-0.48828 0.75781-1.1133 0.78125-1.875v-4.4219c-0.023437-0.75781-0.28125-1.3828-0.78125-1.875-0.52344-0.50781-1.1719-0.76562-1.9531-0.76562-0.6875 0-1.2891 0.25781-1.7969 0.76562-0.51172 0.5-0.76562 1.1016-0.76562 1.7969zm-1.9531 9.3906v-13.844c0-1.2695 0.44531-2.3516 1.3438-3.25 0.90625-0.89453 1.9922-1.3438 3.2656-1.3438 1.2695 0 2.3516 0.44922 3.25 1.3438 0.89453 0.89844 1.3438 1.9805 1.3438 3.25v4.4844c0 1.2734-0.44922 2.3555-1.3438 3.25-0.89844 0.89844-1.9805 1.3438-3.25 1.3438-1 0-1.8867-0.27344-2.6562-0.82812v4.75z"/>
</symbol>
</defs>
<g fill="#E43B5C">
<use x="2.438" y="22.2072" xlink:href="#c"/>
<use x="16.488" y="22.2072" xlink:href="#g"/>
<use x="30.538" y="22.2072" xlink:href="#f"/>
<use x="44.588" y="22.2072" xlink:href="#e"/>
<use x="58.638" y="22.2072" xlink:href="#b"/>
<use x="72.688" y="22.2072" xlink:href="#a"/>
<use x="86.738" y="22.2072" xlink:href="#c"/>
<use x="100.788" y="22.2072" xlink:href="#d"/>
<use x="114.838" y="22.2072" xlink:href="#a"/>
<use x="128.888" y="22.2072" xlink:href="#b"/>
</g>
</svg>
